X: 25951
T: Maurice O'Keeffe's
R: polka
M: 2/4
K: Gmajor
|:DG FA|GB AB/c/|dA FA|GF ED|
D/E/G F/G/A|GB AB/c/|dA FA|1 G2 GE:|2 G2 GA||
|:B2 BA/B/|cB AB/c/|dA FA|GF ED|
B2 BA/B/|cB AB/c/|dA F/G/A|1 G2 GA:|2 G2 GE||

